public/assets/features/notifications.svg

<svg width="50" height="58" viewBox="0 0 50 58" fill="none" xmlns="http://www.w3.org/2000/svg">
<path d="M48.6961 34.9163L45.4109 29.4506C44.684 28.2586 44.0445 25.9619 44.0445 24.5664V19.1298C44.0445 8.57644 35.468 0 24.9437 0C14.3903 0.0290727 5.81388 8.57644 5.81388 19.1298V24.5373C5.81388 25.9328 5.17428 28.2296 4.47653 29.4216L1.19132 34.8872C-0.0588052 37.0095 -0.349532 39.4226 0.43543 41.5158C1.22039 43.6381 2.99383 45.3243 5.31964 46.0802C8.45949 47.1268 11.6284 47.8827 14.8555 48.4351C15.1753 48.4932 15.4951 48.5223 15.8149 48.5805L17.0941 48.7549C17.85 48.8712 18.6059 48.9584 19.3908 49.0165C23.0555 49.3621 26.7446 49.3621 30.4094 49.0165C31.078 48.9584 31.7467 48.9003 32.3863 48.813C32.9096 48.7549 33.4329 48.6967 33.9562 48.6095C34.276 48.5805 34.5958 48.5223 34.9156 48.4642C38.1718 47.9409 41.3988 47.1268 44.5387 46.0802C45.6249 45.7171 46.6164 45.1163 47.4412 44.3217C48.266 43.5271 48.9033 42.5586 49.3066 41.4867C50.1206 39.3063 49.8881 36.9223 48.6961 34.9163ZM27.066 23.1128C27.066 23.6988 26.8332 24.2608 26.4189 24.6751C26.0045 25.0895 25.4425 25.3223 24.8565 25.3223C24.2705 25.3223 23.7085 25.0895 23.2941 24.6751C22.8797 24.2608 22.647 23.6988 22.647 23.1128V14.1003C22.647 13.5142 22.8797 12.9522 23.2941 12.5379C23.7085 12.1235 24.2705 11.8907 24.8565 11.8907C25.4425 11.8907 26.0045 12.1235 26.4189 12.5379C26.8332 12.9522 27.066 13.5142 27.066 14.1003V23.1128ZM33.1131 52.2145C32.5017 53.907 31.3841 55.3702 29.9121 56.4053C28.4401 57.4404 26.6851 57.9972 24.8856 58C22.5888 58 20.3211 57.0697 18.7221 55.4125C17.7918 54.5404 17.0941 53.3774 16.6871 52.1855C17.065 52.2436 17.4429 52.2727 17.85 52.3308C18.5186 52.418 19.2164 52.5053 19.9141 52.5634C21.5713 52.7088 23.2575 52.796 24.9437 52.796C26.6008 52.796 28.258 52.7088 29.8861 52.5634C30.4966 52.5053 31.1071 52.4762 31.6886 52.389L33.1131 52.2145Z" fill="url(#paint0_linear_454_24)"/>
<defs>
<linearGradient id="paint0_linear_454_24" x1="-6.88647e-07" y1="-5.81454" x2="66.8672" y2="119.198" gradientUnits="userSpaceOnUse">
<stop stop-color="#D84961"/>
<stop offset="0.5" stop-color="#BF0A70"/>
<stop offset="1" stop-color="#D3005D"/>
</linearGradient>
</defs>
</svg>

<svg xmlns="http://www.w3.org/2000/svg" width="50" height="58" fill="none" xmlns:v="https://vecta.io/nano"><path d="M48.696 34.916l-3.285-5.466c-.727-1.192-1.366-3.489-1.366-4.884V19.13C44.045 8.576 35.468 0 24.944 0 14.39.029 5.814 8.576 5.814 19.13v5.407c0 1.396-.64 3.692-1.337 4.884l-3.285 5.466C-.059 37.01-.35 39.423.435 41.516c.785 2.122 2.558 3.809 4.884 4.564 3.14 1.047 6.309 1.803 9.536 2.355.32.058.64.087.959.145l1.279.174c.756.116 1.512.203 2.297.262a58.68 58.68 0 0 0 11.019 0c.669-.058 1.337-.116 1.977-.203a28.95 28.95 0 0 0 1.57-.204c.32-.029.64-.087.959-.145 3.256-.523 6.483-1.337 9.623-2.384 1.086-.363 2.078-.964 2.903-1.758s1.462-1.763 1.865-2.835c.814-2.18.581-4.564-.611-6.57zm-21.63-11.803a2.21 2.21 0 0 1-2.209 2.209 2.21 2.21 0 0 1-2.21-2.209V14.1a2.21 2.21 0 0 1 2.21-2.21 2.21 2.21 0 0 1 2.209 2.21v9.013zm6.047 29.102c-.611 1.692-1.729 3.156-3.201 4.191A8.76 8.76 0 0 1 24.886 58c-2.297 0-4.564-.93-6.163-2.587-.93-.872-1.628-2.035-2.035-3.227.378.058.756.087 1.163.145a44.7 44.7 0 0 0 2.064.233c1.657.145 3.343.233 5.03.233a55.69 55.69 0 0 0 4.942-.233c.611-.058 1.221-.087 1.803-.174l1.425-.175z" fill="url(#A)"/><defs><linearGradient id="A" x1="0" y1="-5.815" x2="66.867" y2="119.198" gradientUnits="userSpaceOnUse"><stop stop-color="#d84961"/><stop offset=".5" stop-color="#bf0a70"/><stop offset="1" stop-color="#d3005d"/></linearGradient></defs></svg>
